public/images/logos/disney+.svg

<?xml version="1.0" encoding="UTF-8" standalone="no"?>
<!DOCTYPE svg PUBLIC "-//W3C//DTD SVG 1.1//EN" "http://www.w3.org/Graphics/SVG/1.1/DTD/svg11.dtd">
<!-- Created with Vectornator (http://vectornator.io/) -->
<svg height="100%" stroke-miterlimit="10" style="fill-rule:nonzero;clip-rule:evenodd;stroke-linecap:round;stroke-linejoin:round;" version="1.1" viewBox="0 0 147.2 80" width="100%" xml:space="preserve" xmlns="http://www.w3.org/2000/svg" xmlns:xlink="http://www.w3.org/1999/xlink">
<defs/>
<path d="M0 0L147.2 0L147.2 80L0 80L0 0Z" fill="#000000" fill-opacity="0" fill-rule="nonzero" opacity="1" stroke="none"/>
<clipPath id="ArtboardFrame">
<rect height="80" width="147.2" x="0" y="0"/>
</clipPath>
<g clip-path="url(#ArtboardFrame)" id="Sem-Título">
<g opacity="1">
<path d="M66.7818 54.2204L66.9618 54.2204C68.2041 54.3453 69.4239 54.6368 70.5884 55.0871C71.4462 55.4412 72.1439 56.0985 72.5483 56.9337C73.2586 58.2279 73.39 59.7616 72.9102 61.1577C72.4305 62.5538 71.3841 63.6828 70.0284 64.267C68.9907 64.7533 67.8763 65.0556 66.7351 65.1603C64.597 65.3632 62.444 64.9782 60.5086 64.047C59.2289 63.4704 58.1365 62.5466 57.3553 61.3804C56.8332 60.48 56.8827 59.358 57.482 58.5071C58.4553 57.1737 60.5486 56.8737 62.1486 56.9337C63.6759 57.0266 65.1866 57.3019 66.6485 57.7537C67.2374 57.9516 67.8029 58.2132 68.3351 58.5337C68.4915 58.6686 68.5585 58.8801 68.5084 59.0804C68.2484 59.8804 66.3085 60.3004 65.7485 60.4137C64.2552 60.6404 63.4752 60.0737 61.7486 59.4004C61.2957 59.2123 60.8208 59.0823 60.3353 59.0137C59.562 58.9404 58.6287 59.1537 58.4753 60.0004C58.402 60.4337 58.9153 60.8404 59.302 61.0137C60.1051 61.3736 60.9752 61.5599 61.8552 61.5604C64.5219 61.6004 67.4951 61.167 69.6684 59.6271C69.9979 59.4319 70.2174 59.0941 70.2617 58.7137C70.2617 57.9204 68.8818 57.4404 68.8818 57.4404C67.4218 56.8271 64.7218 56.5337 63.3285 56.4137C61.9352 56.2937 59.5553 56.0938 59.022 56.0004C58.4458 55.9356 57.8809 55.7943 57.342 55.5804C56.8066 55.3387 56.3993 54.8805 56.222 54.3204C56.0169 53.2714 56.2401 52.1838 56.842 51.3005C58.2953 49.2138 61.6952 48.4272 64.2352 48.1072C66.7751 47.7872 70.6617 47.8072 73.0817 49.0871C73.4483 49.2871 73.6416 49.4738 73.5616 49.8738C73.4019 50.5783 72.8614 51.1342 72.1617 51.3138C71.2282 51.5213 70.2775 51.6418 69.3217 51.6738C66.4085 51.8338 62.8952 51.7471 60.122 52.5071C59.8651 52.5538 59.6216 52.6562 59.4086 52.8071C58.9753 53.2738 60.2153 53.4138 60.4753 53.4738L60.6553 53.4738L66.7818 54.2004M49.4489 41.2205C49.4489 41.2205 49.9222 40.5072 50.3155 39.9739C51.2158 38.8178 52.2248 37.7507 53.3288 36.7873L53.9954 36.2406C53.9954 36.2406 53.4354 36.2939 53.1221 36.3606C52.2424 36.6339 51.4295 37.0881 50.7355 37.6939C49.8288 38.4672 48.8422 39.6939 49.2889 40.8339C49.3555 40.9939 49.4555 41.2072 49.4555 41.2072M54.4754 42.5405C55.8806 42.4438 57.2468 42.0362 58.4753 41.3472C59.6953 40.6806 61.4886 39.3472 61.3019 37.7672C61.2437 37.2928 60.9359 36.8858 60.4953 36.7006C60.0112 36.4759 59.4527 36.4759 58.9686 36.7006C58.5437 36.8123 58.1372 36.9852 57.762 37.2139C56.0699 38.2744 54.5632 39.6054 53.3021 41.1539C53.0554 41.4805 52.8021 41.8205 52.6021 42.0939C52.4021 42.3672 52.3821 42.3939 52.3955 42.4339C52.4355 42.5872 53.9088 42.5739 54.4687 42.5339M50.8355 45.2005C50.6589 45.4543 50.5028 45.7218 50.3688 46.0005C50.2761 46.154 50.159 46.2913 50.0222 46.4072C49.8843 46.5476 49.6957 46.6268 49.4989 46.6268C49.302 46.6268 49.1134 46.5476 48.9755 46.4072C48.4736 45.9381 48.1806 45.2873 48.1622 44.6005C48.186 44.3143 48.186 44.0267 48.1622 43.7405C47.9735 43.2981 47.7294 42.8814 47.4356 42.5005C47.1493 41.9376 46.9771 41.3236 46.9289 40.6939C46.946 39.0472 47.6319 37.4782 48.8289 36.3473C50.0233 35.1018 51.4623 34.1168 53.0554 33.4539C54.5821 32.7873 56.8087 32.374 58.482 32.954C59.1306 33.1837 59.7108 33.5735 60.1686 34.0873C60.2321 34.1857 60.3083 34.2754 60.3953 34.3539C60.5331 34.4024 60.6764 34.4337 60.8219 34.4473C61.4087 34.5834 61.9591 34.8449 62.4352 35.2139C63.0188 35.6717 63.4167 36.3253 63.5552 37.0539C63.8752 38.5739 62.9952 40.2406 62.0019 41.2539C60.4519 42.9234 58.5507 44.2281 56.4354 45.0738C55.3102 45.521 54.1057 45.7342 52.8954 45.7005C52.5621 45.7005 52.2288 45.5872 51.8888 45.5605C51.6 45.5189 51.3162 45.4474 51.0422 45.3472C50.9555 45.2872 50.8555 45.2272 50.8355 45.2538M52.7821 48.5871C52.8703 48.6057 52.9572 48.6302 53.0421 48.6605C53.7396 48.9997 54.2168 49.6703 54.3087 50.4405C54.7421 52.2405 54.9287 56.2338 54.9754 57.7737C55.0287 58.9471 55.0554 60.1004 55.1087 61.2604C55.204 62.329 55.1749 63.4051 55.0221 64.467C54.9394 64.8376 54.7205 65.1636 54.4087 65.3803C53.8895 65.5935 53.3185 65.6469 52.7688 65.5337C51.6488 65.3003 51.2821 64.5803 51.1222 63.4737C50.7422 60.807 50.9288 55.6538 51.1222 53.4738C51.2376 52.1205 51.4809 50.7812 51.8488 49.4738C51.9755 49.1471 52.2488 48.4872 52.7288 48.5805M18.7495 53.0071C18.7495 53.0071 17.0896 53.1271 15.9429 53.2538C13.9806 53.4706 12.0431 53.8724 10.1564 54.4538C9.68308 54.6204 8.7231 55.0271 8.63644 55.5138C8.60874 56.0234 8.82084 56.5166 9.20976 56.8471C9.40975 57.0871 10.5431 58.1804 10.8764 58.4537C12.7409 59.9286 14.7808 61.1669 16.9496 62.1404C17.6162 62.427 18.7762 62.807 18.7762 62.807C18.7762 62.807 18.6895 59.5671 18.7095 56.3671C18.7095 54.6804 18.7495 53.0338 18.7495 53.0338M49.2955 54.3271C49.3291 55.2437 49.2732 56.1613 49.1289 57.0671C49.0033 57.6791 48.8317 58.2808 48.6155 58.8671C48.3155 59.5337 48.0089 60.1404 47.6956 60.7204C46.9713 61.9028 46.0899 62.9815 45.0756 63.927C42.209 66.407 37.7425 67.8137 33.9625 68.2803C31.1994 68.5951 28.405 68.5007 25.6694 68.0003C24.7294 67.827 23.3294 67.507 23.3294 67.507C23.3294 67.507 23.3294 68.067 23.2894 68.4603C23.2369 68.7359 23.1588 69.0059 23.0561 69.267C22.8722 69.6709 22.4903 69.9491 22.0495 70.0003C21.4851 70.1416 20.8916 70.1137 20.3428 69.9203C19.4695 69.5536 19.1562 68.7403 19.0095 67.8003C18.8895 67.047 18.7629 65.7403 18.7629 65.7403C18.7629 65.7403 18.0962 65.4337 17.5696 65.1603C15.9327 64.3544 14.3709 63.404 12.903 62.3204C12.523 62.0337 10.9031 60.6537 10.5097 60.3204C9.46521 59.4038 8.56607 58.3338 7.84312 57.1471C7.27913 56.3053 7.17163 55.2378 7.55646 54.3004C8.12312 52.8738 10.1697 51.8005 11.5564 51.1871C13.3552 50.4638 15.2132 49.8972 17.1096 49.4938C17.6677 49.4227 18.2218 49.3226 18.7695 49.1938L18.8295 49.1405C18.8295 49.0938 18.9095 47.6805 18.9029 47.1405C18.8962 46.6005 19.2762 43.2939 19.4029 42.5872C19.5191 41.8152 19.7435 41.0633 20.0695 40.3539C20.2763 40.1138 20.6364 40.0813 20.8828 40.2806C22.4095 41.2272 22.8828 44.5139 22.9828 46.1805C23.0494 47.2005 23.0828 48.7338 23.0828 48.7338C23.0828 48.7338 24.8294 48.6805 25.9027 48.7338C27.0029 48.7797 28.0987 48.9 29.1826 49.0938C31.1446 49.3706 33.0626 49.8994 34.8892 50.6671C36.1623 51.2521 37.179 52.2806 37.7491 53.5604C38.1288 54.4593 38.0389 55.4877 37.5091 56.3071C36.8956 57.3998 35.7891 58.1258 34.5425 58.2537C33.8208 58.2503 33.1085 58.0887 32.4559 57.7804C32.3205 57.6387 32.3205 57.4155 32.4559 57.2737C32.5026 57.2204 33.1226 56.8937 33.4825 56.7004C33.6564 56.6081 33.8178 56.4938 33.9625 56.3604C34.2732 56.1571 34.4744 55.8234 34.5092 55.4538C34.4625 55.0071 33.9892 54.7338 33.5425 54.5538C30.8223 53.6629 28.004 53.1055 25.1494 52.8938C24.3494 52.8471 23.2094 52.8071 23.2094 52.8071L23.4494 64.0937C23.4494 64.0937 24.3961 64.2737 25.1361 64.3937C25.5627 64.4537 27.3627 64.6203 27.8427 64.627C31.4893 64.727 35.5558 64.4003 38.9024 62.8204C40.3561 62.1879 41.6634 61.2619 42.7423 60.1004C44.1298 58.4819 44.801 56.3696 44.6023 54.2471C44.4023 51.8405 42.709 48.9805 41.3557 47.2405C37.7225 42.6672 31.5959 38.8806 26.2227 36.6673C20.897 34.4032 15.2053 33.1225 9.42309 32.8873C7.26316 32.7947 5.0998 32.9535 2.97656 33.3606C2.73657 33.4273 2.49657 33.5073 2.27658 33.5606C2.092 33.6038 1.91615 33.6782 1.75659 33.7806L1.66993 33.8606L1.86992 33.9539C2.04992 34.0339 2.7899 34.0806 3.20323 34.1473C3.53987 34.1919 3.84349 34.3726 4.04321 34.6473C4.18929 34.8281 4.18929 35.0864 4.04321 35.2673C3.66988 35.7273 2.24991 35.6473 1.62993 35.5539C1.00994 35.4606 0.176626 35.2473 0.0232965 34.6873C-0.0669967 34.0085 0.107254 33.3211 0.509952 32.7673C1.16813 31.6318 2.27403 30.8259 3.55655 30.5473C5.69682 29.9771 7.891 29.633 10.1031 29.5206C14.4211 29.4205 18.7248 30.0562 22.8295 31.4006C25.53 32.2431 28.1694 33.2699 30.7293 34.4739C32.7037 35.45 34.6242 36.5315 36.4825 37.7139C36.9491 38.0206 39.6624 40.0139 40.0891 40.3806C40.969 41.1005 42.089 42.1339 42.9557 42.9605C44.7612 44.7346 46.3075 46.7545 47.5489 48.9605C47.7822 49.4271 47.9622 49.8871 48.2622 50.4271C48.5066 50.9367 48.7159 51.4624 48.8889 52.0005C48.9622 52.3205 49.0689 52.7871 49.0822 52.8004C49.19 53.29 49.2613 53.787 49.2955 54.2871M104.114 51.7938C101.659 52.1786 99.1841 52.4235 96.7011 52.5271L96.0345 54.6471C97.5767 54.5298 99.1255 54.5298 100.668 54.6471C100.668 54.6471 101.334 54.5738 101.374 55.3671C101.386 55.8767 101.366 56.3866 101.314 56.8937C101.314 56.8937 101.274 57.3737 100.594 57.5004C99.9144 57.6271 94.8078 57.8137 94.8078 57.8137L93.9945 60.5804C93.9945 60.5804 93.6879 61.247 94.3679 61.0404C95.0478 60.8337 100.288 59.8737 100.981 60.0204C101.874 60.2823 102.441 61.1583 102.314 62.0804C102.028 63.1937 96.7545 66.5603 93.5345 66.327C93.5345 66.327 91.8479 66.4337 90.4213 64.1537C89.088 61.9804 90.9213 57.8671 90.9213 57.8671C90.9213 57.8671 90.0813 55.9471 90.6946 55.3004C91.1125 55.0223 91.6061 54.8803 92.1079 54.8938L93.4079 52.2271C92.5157 52.2649 91.6531 51.9032 91.0546 51.2405C90.2346 50.2138 90.1679 49.7405 90.7946 49.4538C91.4212 49.1671 97.6011 48.0072 101.828 48.1205C101.828 48.1205 103.294 47.9738 104.568 50.5205C104.568 50.5205 105.181 51.5538 104.134 51.8005M88.2213 62.1004C87.6813 63.3737 86.2547 64.7337 84.4747 63.887C82.6948 63.0404 79.9348 57.3337 79.9348 57.3337C79.9348 57.3337 78.8749 55.2004 78.6749 55.2538C78.6749 55.2538 78.4415 54.8404 78.3015 57.1671C78.1615 59.4937 78.3015 64.007 77.4082 64.7203C77.0402 65.0415 76.5481 65.1819 76.066 65.1033C75.5839 65.0246 75.1619 64.7352 74.915 64.3137C74.415 63.4937 74.2083 61.5404 74.4816 58.1137C74.755 54.6871 75.6016 51.0271 76.6216 49.8871C76.8726 49.5435 77.2726 49.3403 77.6982 49.3403C78.1238 49.3403 78.5238 49.5435 78.7749 49.8871C78.7749 49.8871 80.1082 51.1205 82.3815 54.7471L82.7814 55.4138C82.7814 55.4138 84.8214 58.8404 85.0347 58.8337C85.0347 58.8337 85.2014 58.9937 85.3481 58.8804C85.4947 58.7671 85.4747 57.7204 85.4747 57.7204C84.9782 54.3144 84.2136 50.9529 83.1881 47.6672C83.0257 47.1747 82.9958 46.6482 83.1014 46.1405C83.2881 45.4005 84.0347 45.7472 84.0347 45.7472C84.0347 45.7472 86.9214 47.2005 88.3213 51.9005C89.7213 56.6004 88.7813 60.8337 88.228 62.1204M119.287 59.3071C117.954 61.6004 114.267 66.3937 109.341 65.267C107.427 69.6953 106.152 74.3732 105.554 79.1602C105.554 79.1602 105.381 80.3202 104.421 79.9135C103.461 79.5069 101.888 77.9936 101.568 75.7936C101.228 72.9003 102.514 68.0203 105.141 62.4204C104.165 60.7387 103.864 58.7486 104.301 56.8537C104.301 56.8537 104.968 52.1471 109.688 47.9072C109.688 47.9072 110.254 47.4138 110.581 47.5672C110.907 47.7205 110.774 49.2471 110.487 49.9938C110.201 50.7405 108.088 54.3804 108.088 54.3804C108.088 54.3804 106.754 56.8404 107.141 58.7871C109.621 54.9738 115.261 47.2805 118.754 49.7071C119.927 50.5471 120.467 52.3738 120.467 54.3738C120.484 56.095 120.076 57.7939 119.281 59.3204M118.261 53.2804C118.261 53.2804 118.067 51.7671 116.587 53.4338C114.455 55.7343 112.631 58.3025 111.161 61.0737C112.765 60.8647 114.283 60.2268 115.554 59.2271C116.474 58.4137 118.621 56.1938 118.274 53.2271M146.447 52.8804L137.407 52.8804C137.226 49.8126 136.847 46.7597 136.274 43.7405C136.215 43.4198 135.933 43.1885 135.607 43.1939L133.554 43.1939C133.371 43.1931 133.197 43.2737 133.08 43.4139C132.961 43.5536 132.914 43.7411 132.954 43.9205C133.54 46.8797 133.923 49.8756 134.1 52.8871L125.434 52.8871C125.24 52.8853 125.053 52.9611 124.916 53.0976C124.778 53.234 124.7 53.4199 124.701 53.6138L124.701 55.4938C124.701 55.8988 125.029 56.2271 125.434 56.2271L134.22 56.2271C134.22 56.6937 134.22 57.1071 134.22 57.4937C134.231 59.9836 134.099 62.4721 133.827 64.947C133.804 65.1416 133.867 65.3367 134 65.4803C134.128 65.6259 134.313 65.7087 134.507 65.707L136.434 65.707C136.813 65.7083 137.129 65.4181 137.16 65.0403C137.429 62.5406 137.56 60.0279 137.554 57.5137C137.554 57.1271 137.554 56.7137 137.554 56.2471L146.467 56.2471C146.872 56.2471 147.2 55.9188 147.2 55.5138L147.2 53.6338C147.196 53.2303 146.87 52.9041 146.467 52.9004" fill="#000000" fill-rule="nonzero" opacity="1" stroke="none"/>
<path d="M25.6627 27.734C25.5266 27.9287 25.4942 28.1776 25.5761 28.4007C25.6534 28.6162 25.8216 28.7868 26.036 28.8673L27.656 29.4073C27.7482 29.439 27.8452 29.4548 27.9427 29.454C28.2432 29.4548 28.5249 29.3077 28.696 29.0607C39.6523 12.8843 57.9176 3.19464 77.4549 3.19421C101.141 3.20186 122.525 17.3791 131.754 39.1939C131.889 39.5084 132.198 39.7126 132.54 39.7139L134.474 39.7139C134.701 39.7193 134.916 39.6081 135.043 39.419C135.17 39.23 135.191 38.9892 135.1 38.7806C126.414 17.4307 106.639 2.63033 83.7065 0.315533C60.7741-1.99926 38.4403 8.55066 25.6627 27.734" fill="#000000" fill-rule="nonzero" opacity="1" stroke="none"/>
</g>
</g>
</svg>

<?xml version="1.0" encoding="UTF-8"?><svg id="a" xmlns="http://www.w3.org/2000/svg" xmlns:xlink="http://www.w3.org/1999/xlink" viewBox="0 0 147.2 80"><defs><clipPath id="b"><rect x="0" y="0" width="147.2" height="80" style="fill:none; stroke-width:0px;"/></clipPath></defs><g style="clip-path:url(#b);"><g id="c"><path d="m66.78,54.22h.18c1.24.12,2.46.42,3.63.87.86.35,1.56,1.01,1.96,1.85.71,1.29.84,2.83.36,4.22-.48,1.4-1.53,2.53-2.88,3.11-1.04.49-2.15.79-3.29.89-2.14.2-4.29-.18-6.23-1.11-1.28-.58-2.37-1.5-3.15-2.67-.52-.9-.47-2.02.13-2.87.97-1.33,3.07-1.63,4.67-1.57,1.53.09,3.04.37,4.5.82.59.2,1.15.46,1.69.78.16.13.22.35.17.55-.26.8-2.2,1.22-2.76,1.33-1.49.23-2.27-.34-4-1.01-.45-.19-.93-.32-1.41-.39-.77-.07-1.71.14-1.86.99-.07.43.44.84.83,1.01.8.36,1.67.55,2.55.55,2.67.04,5.64-.39,7.81-1.93.33-.2.55-.53.59-.91,0-.79-1.38-1.27-1.38-1.27-1.46-.61-4.16-.91-5.55-1.03-1.39-.12-3.77-.32-4.31-.41-.58-.06-1.14-.21-1.68-.42-.54-.24-.94-.7-1.12-1.26-.21-1.05.02-2.14.62-3.02,1.45-2.09,4.85-2.87,7.39-3.19,2.54-.32,6.43-.3,8.85.98.37.2.56.39.48.79-.16.7-.7,1.26-1.4,1.44-.93.21-1.88.33-2.84.36-2.91.16-6.43.07-9.2.83-.26.05-.5.15-.71.3-.43.47.81.61,1.07.67h.18l6.13.73m-17.33-12.98s.47-.71.87-1.25c.9-1.16,1.91-2.22,3.01-3.19l.67-.55s-.56.05-.87.12c-.88.27-1.69.73-2.39,1.33-.91.77-1.89,2-1.45,3.14.07.16.17.37.17.37m5.02,1.33c1.41-.1,2.77-.5,4-1.19,1.22-.67,3.01-2,2.83-3.58-.06-.47-.37-.88-.81-1.07-.48-.22-1.04-.22-1.53,0-.42.11-.83.28-1.21.51-1.69,1.06-3.2,2.39-4.46,3.94-.25.33-.5.67-.7.94-.2.27-.22.3-.21.34.04.15,1.51.14,2.07.1m-3.63,2.67c-.18.25-.33.52-.47.8-.09.15-.21.29-.35.41-.14.14-.33.22-.52.22s-.39-.08-.52-.22c-.5-.47-.79-1.12-.81-1.81.02-.29.02-.57,0-.86-.19-.44-.43-.86-.73-1.24-.29-.56-.46-1.18-.51-1.81.02-1.65.7-3.22,1.9-4.35,1.19-1.25,2.63-2.23,4.23-2.89,1.53-.67,3.75-1.08,5.43-.5.65.23,1.23.62,1.69,1.13.06.1.14.19.23.27.14.05.28.08.43.09.59.14,1.14.4,1.61.77.58.46.98,1.11,1.12,1.84.32,1.52-.56,3.19-1.55,4.2-1.55,1.67-3.45,2.97-5.57,3.82-1.13.45-2.33.66-3.54.63-.33,0-.67-.11-1.01-.14-.29-.04-.57-.11-.85-.21-.09-.06-.19-.12-.21-.09m1.95,3.33c.09.02.18.04.26.07.7.34,1.17,1.01,1.27,1.78.43,1.8.62,5.79.67,7.33.05,1.17.08,2.33.13,3.49.1,1.07.07,2.14-.09,3.21-.08.37-.3.7-.61.91-.52.21-1.09.27-1.64.15-1.12-.23-1.49-.95-1.65-2.06-.38-2.67-.19-7.82,0-10,.12-1.35.36-2.69.73-4,.13-.33.4-.99.88-.89m-33.98,4.43s-1.66.12-2.81.25c-1.96.22-3.9.62-5.79,1.2-.47.17-1.43.57-1.52,1.06-.03.51.18,1,.57,1.33.2.24,1.33,1.33,1.67,1.61,1.86,1.47,3.9,2.71,6.07,3.69.67.29,1.83.67,1.83.67,0,0-.09-3.24-.07-6.44,0-1.69.04-3.33.04-3.33m30.55,1.29c.03.92-.02,1.83-.17,2.74-.13.61-.3,1.21-.51,1.8-.3.67-.61,1.27-.92,1.85-.72,1.18-1.61,2.26-2.62,3.21-2.87,2.48-7.33,3.89-11.11,4.35-2.76.31-5.56.22-8.29-.28-.94-.17-2.34-.49-2.34-.49,0,0,0,.56-.04.95-.05.28-.13.55-.23.81-.18.4-.57.68-1.01.73-.56.14-1.16.11-1.71-.08-.87-.37-1.19-1.18-1.33-2.12-.12-.75-.25-2.06-.25-2.06,0,0-.67-.31-1.19-.58-1.64-.81-3.2-1.76-4.67-2.84-.38-.29-2-1.67-2.39-2-1.04-.92-1.94-1.99-2.67-3.17-.56-.84-.67-1.91-.29-2.85.57-1.43,2.61-2.5,4-3.11,1.8-.72,3.66-1.29,5.55-1.69.56-.07,1.11-.17,1.66-.3l.06-.05s.08-1.46.07-2c0-.54.37-3.85.5-4.55.12-.77.34-1.52.67-2.23.21-.24.57-.27.81-.07,1.53.95,2,4.23,2.1,5.9.07,1.02.1,2.55.1,2.55,0,0,1.75-.05,2.82,0,1.1.05,2.2.17,3.28.36,1.96.28,3.88.81,5.71,1.57,1.27.59,2.29,1.61,2.86,2.89.38.9.29,1.93-.24,2.75-.61,1.09-1.72,1.82-2.97,1.95-.72,0-1.43-.17-2.09-.47-.14-.14-.14-.36,0-.51.05-.05.67-.38,1.03-.57.17-.09.34-.21.48-.34.31-.2.51-.54.55-.91-.05-.45-.52-.72-.97-.9-2.72-.89-5.54-1.45-8.39-1.66-.8-.05-1.94-.09-1.94-.09l.24,11.29s.95.18,1.69.3c.43.06,2.23.23,2.71.23,3.65.1,7.71-.23,11.06-1.81,1.45-.63,2.76-1.56,3.84-2.72,1.39-1.62,2.06-3.73,1.86-5.85-.2-2.41-1.89-5.27-3.25-7.01-3.63-4.57-9.76-8.36-15.13-10.57-5.33-2.26-11.02-3.54-16.8-3.78-2.16-.09-4.32.07-6.45.47-.24.07-.48.15-.7.2-.18.04-.36.12-.52.22l-.09.08.2.09c.18.08.92.13,1.33.19.34.04.64.23.84.5.15.18.15.44,0,.62-.37.46-1.79.38-2.41.29-.62-.09-1.45-.31-1.61-.87-.09-.68.08-1.37.49-1.92.66-1.14,1.76-1.94,3.05-2.22,2.14-.57,4.33-.91,6.55-1.03,4.32-.1,8.62.54,12.73,1.88,2.7.84,5.34,1.87,7.9,3.07,1.97.98,3.89,2.06,5.75,3.24.47.31,3.18,2.3,3.61,2.67.88.72,2,1.75,2.87,2.58,1.81,1.77,3.35,3.79,4.59,6,.23.47.41.93.71,1.47.24.51.45,1.04.63,1.57.07.32.18.79.19.8.11.49.18.99.21,1.49m54.82-2.49c-2.46.38-4.93.63-7.41.73l-.67,2.12c1.54-.12,3.09-.12,4.63,0,0,0,.67-.07.71.72.01.51,0,1.02-.06,1.53,0,0-.04.48-.72.61-.68.13-5.79.31-5.79.31l-.81,2.77s-.31.67.37.46c.68-.21,5.92-1.17,6.61-1.02.89.26,1.46,1.14,1.33,2.06-.29,1.11-5.56,4.48-8.78,4.25,0,0-1.69.11-3.11-2.17-1.33-2.17.5-6.29.5-6.29,0,0-.84-1.92-.23-2.57.42-.28.91-.42,1.41-.41l1.3-2.67c-.89.04-1.75-.32-2.35-.99-.82-1.03-.89-1.5-.26-1.79.63-.29,6.81-1.45,11.03-1.33,0,0,1.47-.15,2.74,2.4,0,0,.61,1.03-.43,1.28m-15.91,10.3c-.54,1.27-1.97,2.63-3.75,1.79-1.78-.85-4.54-6.55-4.54-6.55,0,0-1.06-2.13-1.26-2.08,0,0-.23-.41-.37,1.91-.14,2.33,0,6.84-.89,7.55-.37.32-.86.46-1.34.38-.48-.08-.9-.37-1.15-.79-.5-.82-.71-2.77-.43-6.2.27-3.43,1.12-7.09,2.14-8.23.25-.34.65-.55,1.08-.55s.83.2,1.08.55c0,0,1.33,1.23,3.61,4.86l.4.67s2.04,3.43,2.25,3.42c0,0,.17.16.31.05.15-.11.13-1.16.13-1.16-.5-3.41-1.26-6.77-2.29-10.05-.16-.49-.19-1.02-.09-1.53.19-.74.93-.39.93-.39,0,0,2.89,1.45,4.29,6.15,1.4,4.7.46,8.93-.09,10.22m31.06-2.81c-1.33,2.29-5.02,7.09-9.95,5.96-1.91,4.43-3.19,9.11-3.79,13.89,0,0-.17,1.16-1.13.75-.96-.41-2.53-1.92-2.85-4.12-.34-2.89.95-7.77,3.57-13.37-.98-1.68-1.28-3.67-.84-5.57,0,0,.67-4.71,5.39-8.95,0,0,.57-.49.89-.34.33.15.19,1.68-.09,2.43-.29.75-2.4,4.39-2.4,4.39,0,0-1.33,2.46-.95,4.41,2.48-3.81,8.12-11.51,11.61-9.08,1.17.84,1.71,2.67,1.71,4.67.02,1.72-.39,3.42-1.19,4.95m-1.02-6.04s-.19-1.51-1.67.15c-2.13,2.3-3.96,4.87-5.43,7.64,1.6-.21,3.12-.85,4.39-1.85.92-.81,3.07-3.03,2.72-6m28.17-.35h-9.04c-.18-3.07-.56-6.12-1.13-9.14-.06-.32-.34-.55-.67-.55h-2.05c-.18,0-.36.08-.47.22-.12.14-.17.33-.13.51.59,2.96.97,5.96,1.15,8.97h-8.67c-.19,0-.38.07-.52.21-.14.14-.22.32-.22.52v1.88c0,.4.33.73.73.73h8.79v1.27c.01,2.49-.12,4.98-.39,7.45-.02.19.04.39.17.53.13.15.31.23.51.23h1.93c.38,0,.69-.29.73-.67.27-2.5.4-5.01.39-7.53v-1.27h8.91c.4,0,.73-.33.73-.73v-1.88c0-.4-.33-.73-.73-.73" style="stroke-width:0px;"/><path d="m25.66,27.73c-.14.19-.17.44-.09.67.08.22.25.39.46.47l1.62.54c.09.03.19.05.29.05.3,0,.58-.15.75-.39C39.65,12.88,57.92,3.19,77.45,3.19c23.69,0,45.07,14.18,54.3,36,.14.31.44.52.79.52h1.93c.23,0,.44-.11.57-.29.13-.19.15-.43.06-.64C126.41,17.43,106.64,2.63,83.71.32,60.77-2,38.44,8.55,25.66,27.73" style="stroke-width:0px;"/></g></g></svg>
